X:1
T:Title
%%score { 1 | 2 }
L:1/8
M:2/4
K:A
V:1 treble nm="Grand Piano"
V:2 bass 
V:1
 z2 z[Q:1/4=84] [CE] | [CE][CE] [CE][CE] | FF FF | [CE][CE] [EA][EA] | B3 B | cc [EA][EA] | %6
 [FB][FB] FF | GG FE |[M:3/8] [CA]3 |[M:1/8] [A,CE] |[M:2/4] [Ec]2 [A,CA]2 | [Ec]2 [CA]2 | GA Bc | %13
 dc BE | c2 [CA]2 | c2 [CA]2 | GA Bc |[M:3/8] [CA]3 |] %18
V:2
 z2 z [A,,A,] | [A,,A,][A,,A,] [A,,A,][A,,A,] | [D,A,D][D,A,D] [D,B,D][D,A,D] | %3
 [A,,A,][A,,A,] [C,A,][C,A,] | [E,G,E]3 [E,G,E] | [A,E][A,E] [C,A,][C,A,] | %6
 [D,D][D,D] [D,B,D][D,B,D] | [E,B,D][E,B,D] [E,A,D][E,G,] |[M:3/8] [A,,E,]3 |[M:1/8] A,, | %10
[M:2/4] A,2 A,,2 | A,2 [A,,A,]2 | [E,E][E,F,E] [E,G,E][E,A,E] | [E,B,E][E,A,E] [E,G,E][E,G,] | %14
 [A,E]2 [A,,A,]2 | [A,E]2 [A,,A,]2 | [E,B,][E,C] [E,E][E,E] |[M:3/8] [A,,E,]3 |] %18

